brandFactory_export/3.Masa/Tormenta _3Masa.svg

<?xml version="1.0" encoding="UTF-8"?>
<svg width="24px" height="24px" viewBox="0 0 24 24" version="1.1" xmlns="http://www.w3.org/2000/svg" xmlns:xlink="http://www.w3.org/1999/xlink">
    <title>3.Masa/Tormenta _3Masa</title>
    <g id="Symbols" stroke="none" stroke-width="1" fill="none" fill-rule="evenodd">
        <g id="3.Masa/Tormenta-_3Masa" fill="#5CB615" fill-rule="nonzero">
            <path d="M16.497479,15.7445378 L8.90756303,21.6201681 L10.6487395,17.6201681 C10.6689076,17.5596639 10.7260504,17.4957983 10.6890756,17.4689076 C10.6084034,17.4184874 7.01512605,16.6218487 7.01512605,16.6218487 C6.84705882,16.5781513 6.71596639,16.4504202 6.66890756,16.2823529 C6.61512605,16.1109244 6.65546218,15.9260504 6.77647059,15.794958 L13.902521,7.88571429 C14.0571429,7.71092437 14.312605,7.67394958 14.5109244,7.79495798 C14.712605,7.92268908 14.789916,8.18487395 14.712605,8.40336134 C14.712605,8.40336134 12.5277311,13.8991597 12.5781513,14.0571429 C12.6184874,14.1815126 16.2521008,14.9042017 16.2521008,14.9042017 C16.4268908,14.9478992 16.5647059,15.0823529 16.6117647,15.2537815 C16.6621849,15.4252101 16.6117647,15.6168067 16.497479,15.7445378 M18.0369748,4.63529412 C16.5445378,0.228571429 11.6907563,0 10.7058824,0 C9.42857143,0 3.17310924,0.349579832 2.94117647,7.24705882 C1.65378151,7.77815126 0,9.05546218 0,12.1546218 C0,16.1042017 2.35294118,17.3647059 5.21680672,17.5361345 L9.47226891,17.8722689 L7.28067227,22.9176471 C7.18319328,23.1260504 7.24369748,23.3680672 7.41512605,23.5159664 C7.50252101,23.5831933 7.61008403,23.6235294 7.71764706,23.6235294 C7.81512605,23.6235294 7.91932773,23.5932773 7.99663866,23.5260504 L16.1277311,17.4521008 L17.297479,17.4420168 C20.2184874,17.4420168 23.6201711,15.7546218 23.6201711,11.0084034 C23.6235294,6.69243697 20.8268908,4.90756303 18.0369748,4.63529412" id="Tormenta-_3Masa"></path>
        </g>
    </g>
</svg>

<svg width="24" height="24" viewBox="0 0 24 24" xmlns="http://www.w3.org/2000/svg"><path d="M16.497 15.745l-7.59 5.875 1.742-4c.02-.06.077-.124.04-.151-.08-.05-3.674-.847-3.674-.847a.484.484 0 01-.346-.34.497.497 0 01.107-.487l7.127-7.91a.478.478 0 01.608-.09c.202.128.279.39.202.608 0 0-2.185 5.496-2.135 5.654.04.125 3.674.847 3.674.847a.498.498 0 01.36.35c.05.171 0 .363-.115.49m1.54-11.109C16.545.23 11.691 0 10.706 0 9.429 0 3.173.35 2.94 7.247 1.654 7.778 0 9.055 0 12.155c0 3.95 2.353 5.21 5.217 5.381l4.255.336-2.191 5.046a.506.506 0 00.134.598.503.503 0 00.303.108c.097 0 .201-.03.279-.098l8.13-6.074 1.17-.01c2.921 0 6.323-1.687 6.323-6.434.004-4.316-2.793-6.1-5.583-6.373" fill="#5CB615" fill-rule="nonzero"/></svg>
